images/makesthings.svg

<svg height="121.405273" preserveAspectRatio="xMidYMid" viewBox="-56.9687439 14.29736328 613.93748779 121.40527344" width="613.937488" xmlns="http://www.w3.org/2000/svg" xmlns:xlink="http://www.w3.org/1999/xlink"><linearGradient id="a" gradientUnits="objectBoundingBox" x1="0" x2="1" y1=".5" y2=".5"><stop offset="0" stop-color="#f0f"/><stop offset="1" stop-color="#0ff"/></linearGradient><path d="m7.3-9.15h-5.76q-.39-1.41-.39-3.11 0-1.69 1.22-2.97 1.21-1.28 3.45-1.28h2.76l1.4-8.26h-6.46q-.38-1.41-.38-3.13 0-1.73 1.21-2.98 1.22-1.25 3.46-1.25h3.39l1.02-6.21q.71-3.9 4.23-3.9 1.41 0 3.26.77l-1.47 9.34h7.1l1.03-6.21q.32-1.85 1.41-2.88 1.08-1.02 2.68-1.02 1.6 0 3.33.77l-1.41 9.34h6.08q.32 1.47.32 3.17 0 1.7-1.18 2.94-1.18 1.25-3.42 1.25h-2.95l-1.28 8.26h6.47q.38 1.47.38 3.17 0 1.69-1.22 2.94-1.21 1.25-3.45 1.25h-3.27l-.76 5.25q-.26 1.85-1.67 2.88-1.41 1.02-3.1 1.02-1.7 0-3.3-.77l1.47-8.38h-6.78l-.77 5.25q-.25 1.85-1.66 2.88-1.41 1.02-3.11 1.02-1.69 0-3.29-.77zm9.79-15.62-1.22 8.26h6.85l1.41-8.26zm70.14 26.05q-7.74 0-7.74-6.02 0-2.62 1.12-7.71 1.12-5.09 1.5-7.13.9-4.68.9-6.15 0-3.26-2.43-3.26-1.6 0-3.14 2.21-1.54 2.2-2.24 6.62l-3.97 20.16-12.48 1.28 3.46-17.41q.57-2.88 1.09-6.14.51-3.27.51-3.78 0-2.94-2.18-2.94-1.47 0-3.07 2.17-1.6 2.18-2.5 6.66l-3.9 20.16-12.61 1.28 6.72-33.92 10.43-1.28-1.08 6.46q1.66-3.45 4.73-4.96 3.07-1.5 7.87-1.5 2.76 0 4.55 1.34 1.79 1.35 2.37 3.52 1.08-2.24 3.87-3.55 2.78-1.31 6.21-1.31 3.42 0 5.12.74 1.69.73 2.72 1.95 1.72 2.24 1.72 6.33 0 4.04-1.72 12.42-.9 4.1-.9 5.6 0 1.5.86 2.4.87.9 2.15 1.02-.64 2.18-2.85 3.46-2.21 1.28-5.09 1.28zm15.65-3.2q-1.5-1.66-2.18-4.29-.67-2.62-.67-6.91 0-4.29 1.47-8.19 1.48-3.91 4.16-6.72 5.51-5.89 14.6-5.89 3.26 0 5.63 1.09l10.94-1.09-4.73 24.96q-.2.77-.2 2.18 0 1.4.87 2.3.86.9 2.14 1.02-.64 2.18-2.97 3.46-2.34 1.28-4.96 1.28-2.63 0-4.39-.99-1.76-.99-2.27-2.66-1.02 1.6-3.2 2.63-2.18 1.02-5.09 1.02-2.91 0-5.28-.77-2.37-.77-3.87-2.43zm13.5-25.98q-.73 1.15-1.37 3.1-.64 1.95-1.7 7.17-1.05 5.21-1.05 8.93 0 3.71.57 4.8.58 1.08 1.6 1.08 2.05 0 3.55-1.95 1.51-1.95 2.08-5.41l3.4-18.75q-1.35-1.15-2.92-1.15-1.56 0-2.49.51-.93.51-1.67 1.67zm40.42-2.44q3.46-3.58 10.75-3.58 4.03 0 6.24 2.14 2.21 2.15 2.21 6.08 0 3.94-2.21 6.72-2.21 2.79-6.3 3.94.32 1.28.77 2.62l.89 2.56q1.22 3.27 2.18 4.42.96 1.15 2.24 1.54-.71 2.62-3.27 4.03-2.04 1.15-4.86 1.15-8.26 0-9.34-12.74-.2-1.79-.2-3.58 3.2-.9 5.44-3.9 2.24-3.01 2.24-6.53 0-3.52-2.49-3.52-1.79 0-3.2 1.98-1.41 1.99-2.05 5.38l-4.22 21.63-12.93 1.28 8.96-46.08 12.86-1.28-1.47 7.62q-.96 5.37-2.24 8.12zm48.06 19.52q1.6 1.09 1.6 3.49 0 2.4-1.21 3.94-1.22 1.53-3.2 2.56-4.1 2.11-8.51 2.11-4.42 0-7.01-.96-2.59-.96-4.32-2.75-3.39-3.39-3.39-9.6 0-9.67 5.24-15.55 5.64-6.34 15.43-6.34 6.08 0 9.09 2.56 2.24 1.92 2.24 5.06 0 11.26-19.46 11.26-.26 1.66-.26 3.07 0 2.95 1.32 4.07 1.31 1.12 3.74 1.12 2.43 0 5.02-1.12 2.6-1.12 3.68-2.92zm-13.05-6.97q4.54 0 7.17-2.82 2.62-2.69 2.62-6.97 0-1.48-.54-2.28-.55-.8-1.64-.8-1.08 0-2.01.42-.93.42-1.89 1.82-2.37 3.2-3.71 10.63zm40.32-4.67q.89-2.37.89-4.42 0-3.78-3.07-3.78-1.6 0-2.91 1.44-1.31 1.44-1.31 3.24 0 1.28 1.02 2.3 1.47 1.41 5.25 3.71 3.78 2.31 5.22 4.19 1.44 1.89 1.44 4.48 0 2.6-1.25 4.96-1.25 2.37-3.49 4.04-4.8 3.58-12.48 3.58-4.16 0-7.36-2.18-3.2-2.11-3.2-4.6 0-2.5 1.82-3.97 1.83-1.47 4.52-1.47 2.68 0 4.35 1.02-.83 2.11-.83 3.52 0 4.22 3.58 4.22 1.54 0 2.56-.96 1.02-.96 1.02-2.62 0-3.26-5.5-6.72-4.48-2.94-5.5-4.1-1.73-2.04-1.73-4.6 0-2.56 1.21-5 1.22-2.43 3.46-4.16 4.67-3.58 12.8-3.58 4.16 0 6.62 1.66 2.47 1.67 2.47 4.48 0 2.82-1.7 4.42-1.69 1.6-4.77 1.6-2.11 0-3.13-.7zm12.99 16.06q0-1.73.9-6.08l3.39-17.28h-3.78l.26-1.92q7.68-2.3 15.1-7.94h3.07l-1.53 6.98h4.99l-.58 2.88h-4.92l-3.27 17.28q-.83 3.97-.83 5.31 0 3.07 2.69 3.71-.64 2.18-2.95 3.46-2.3 1.28-5.56 1.28-3.27 0-5.12-2.05-1.86-2.05-1.86-5.63zm54.27-.7q0 2.81 2.88 3.64-.7 2.37-3.45 3.65-2.31 1.09-4.84 1.09-2.52 0-3.84-.67-1.31-.67-2.01-1.76-1.15-1.67-1.15-4.8 0-1.86 1.02-6.98l.9-4.86q1.08-5.57 1.08-7.62 0-3.58-1.98-3.58-2.5 0-4.1 3.65-.64 1.4-1.08 3.52l-4.36 21.82-12.86 1.28 9.02-46.08 12.87-1.28-.51 2.56q-1.8 9.86-3.33 13.18 3.58-3.58 10.17-3.58 6.98 0 8.26 4.61.45 1.47.45 2.75 0 1.28-.1 2.27-.09.99-.41 2.79l-.84 4.6-1.47 7.24q-.32 1.47-.32 2.56zm23.43 3.58q-1.99 4.8-8.32 4.8-3.27 0-5.32-2.24-1.72-1.98-1.72-3.97 0-5.18 2.36-15.29l2.37-12.42 12.99-1.28-3.9 20.22q-1.09 4.74-1.09 6.4 0 3.65 2.63 3.78zm-9.48-38.02q0-2.49 2.08-3.84 2.08-1.34 5.09-1.34 3.01 0 4.83 1.34 1.83 1.35 1.83 3.84 0 2.5-2.02 3.78-2.01 1.28-5.02 1.28-3.01 0-4.9-1.28-1.89-1.28-1.89-3.78zm41.99 42.82q-7.75 0-7.75-6.02.07-1.66.58-4.48l1.15-5.88q1.73-8.32 1.73-10.18 0-3.71-2.18-3.71-3.64 0-5.56 9.53l-3.78 19.46-12.86 1.28 6.65-33.98 10.5-1.22-1.03 6.27q3.01-6.27 12.23-6.27 4.48 0 6.37 1.89 1.88 1.89 1.88 6.11 0 3.97-2.04 13.25-.96 4.16-.96 5.73 0 1.56.86 2.46.86.9 2.14 1.02-.64 2.18-2.84 3.46-2.21 1.28-5.09 1.28zm17.6-28.03q2.17-3.07 5.47-5.12 3.3-2.05 7.33-2.05 4.03 0 5.95 1.28l12.54-1.28-4.35 24.58q-2.24 12.54-6.97 17.47-4.55 4.67-13.38 4.67-6.72 0-10.56-2.11-3.84-2.11-3.84-5.63 0-2.63 1.98-4.13 1.99-1.51 5.06-1.51 2.69 0 4.74 1.22 1.21.64 1.79 1.54-1.47 1.28-1.47 3.39 0 2.75 2.56 2.75 4.28 0 6.72-10.11.7-2.75 1.28-5.51-2.88 3.52-9.41 3.52-4.55 0-7.17-2.17-2.62-2.18-2.62-7.3 0-3.2 1.08-6.81 1.09-3.62 3.27-6.69zm8.32 13.69q0 4.36 2.24 4.36 1.53 0 3.01-1.67 1.15-1.34 1.6-3.33l3.26-16.44q-.32-.07-.64-.2-.64-.25-1.47-.25-3.91 0-6.21 6.4-1.79 4.99-1.79 11.13zm44.61-9.4q.89-2.37.89-4.42 0-3.78-3.07-3.78-1.6 0-2.91 1.44-1.31 1.44-1.31 3.24 0 1.28 1.02 2.3 1.47 1.41 5.25 3.71 3.77 2.31 5.21 4.19 1.44 1.89 1.44 4.48 0 2.6-1.24 4.96-1.25 2.37-3.49 4.04-4.8 3.58-12.48 3.58-4.16 0-7.36-2.18-3.2-2.11-3.2-4.6 0-2.5 1.82-3.97 1.83-1.47 4.51-1.47 2.69 0 4.36 1.02-.84 2.11-.84 3.52 0 4.22 3.59 4.22 1.53 0 2.56-.96 1.02-.96 1.02-2.62 0-3.26-5.5-6.72-4.48-2.94-5.51-4.1-1.72-2.04-1.72-4.6 0-2.56 1.21-5 1.22-2.43 3.46-4.16 4.67-3.58 12.8-3.58 4.16 0 6.62 1.66 2.47 1.67 2.47 4.48 0 2.82-1.7 4.42-1.7 1.6-4.77 1.6-2.11 0-3.13-.7z" fill="url(#a)" transform="translate(31.695001 104.76)"/></svg>

<svg width="613.9374877929687px" height="121.4052734375px" xmlns="http://www.w3.org/2000/svg" viewBox="-56.96874389648434 14.29736328125 613.9374877929687 121.4052734375" style="background: rgba(0, 0, 0, 0);" preserveAspectRatio="xMidYMid"><defs><linearGradient id="editing-gradient-gradient" x1="0" x2="1" y1="0.5" y2="0.5" gradientUnits="objectBoundingBox"><stop offset="0" stop-color="#f0f"></stop><stop offset="1" stop-color="#0ff"></stop></linearGradient></defs><g><g transform="translate(31.695001244544983, 104.76000022888184)"><path d="M7.30-9.15L1.54-9.15L1.54-9.15Q1.15-10.56 1.15-12.26L1.15-12.26L1.15-12.26Q1.15-13.95 2.37-15.23L2.37-15.23L2.37-15.23Q3.58-16.51 5.82-16.51L5.82-16.51L8.58-16.51L9.98-24.77L3.52-24.77L3.52-24.77Q3.14-26.18 3.14-27.90L3.14-27.90L3.14-27.90Q3.14-29.63 4.35-30.88L4.35-30.88L4.35-30.88Q5.57-32.13 7.81-32.13L7.81-32.13L11.20-32.13L12.22-38.34L12.22-38.34Q12.93-42.24 16.45-42.24L16.45-42.24L16.45-42.24Q17.86-42.24 19.71-41.47L19.71-41.47L18.24-32.13L25.34-32.13L26.37-38.34L26.37-38.34Q26.69-40.19 27.78-41.22L27.78-41.22L27.78-41.22Q28.86-42.24 30.46-42.24L30.46-42.24L30.46-42.24Q32.06-42.24 33.79-41.47L33.79-41.47L32.38-32.13L38.46-32.13L38.46-32.13Q38.78-30.66 38.78-28.96L38.78-28.96L38.78-28.96Q38.78-27.26 37.60-26.02L37.60-26.02L37.60-26.02Q36.42-24.77 34.18-24.77L34.18-24.77L31.23-24.77L29.95-16.51L36.42-16.51L36.42-16.51Q36.80-15.04 36.80-13.34L36.80-13.34L36.80-13.34Q36.80-11.65 35.58-10.40L35.58-10.40L35.58-10.40Q34.37-9.15 32.13-9.15L32.13-9.15L28.86-9.15L28.10-3.90L28.10-3.90Q27.84-2.05 26.43-1.02L26.43-1.02L26.43-1.02Q25.02 0 23.33 0L23.33 0L23.33 0Q21.63 0 20.03-0.77L20.03-0.77L21.50-9.15L14.72-9.15L13.95-3.90L13.95-3.90Q13.70-2.05 12.29-1.02L12.29-1.02L12.29-1.02Q10.88 0 9.18 0L9.18 0L9.18 0Q7.49 0 5.89-0.77L5.89-0.77L7.30-9.15ZM17.09-24.77L15.87-16.51L22.72-16.51L24.13-24.77L17.09-24.77ZM87.23 1.28L87.23 1.28L87.23 1.28Q79.49 1.28 79.49-4.74L79.49-4.74L79.49-4.74Q79.49-7.36 80.61-12.45L80.61-12.45L80.61-12.45Q81.73-17.54 82.11-19.58L82.11-19.58L82.11-19.58Q83.01-24.26 83.01-25.73L83.01-25.73L83.01-25.73Q83.01-28.99 80.58-28.99L80.58-28.99L80.58-28.99Q78.98-28.99 77.44-26.78L77.44-26.78L77.44-26.78Q75.90-24.58 75.20-20.16L75.20-20.16L71.23 0L58.75 1.28L62.21-16.13L62.21-16.13Q62.78-19.01 63.30-22.27L63.30-22.27L63.30-22.27Q63.81-25.54 63.81-26.05L63.81-26.05L63.81-26.05Q63.81-28.99 61.63-28.99L61.63-28.99L61.63-28.99Q60.16-28.99 58.56-26.82L58.56-26.82L58.56-26.82Q56.96-24.64 56.06-20.16L56.06-20.16L52.16 0L39.55 1.28L46.27-32.64L56.70-33.92L55.62-27.46L55.62-27.46Q57.28-30.91 60.35-32.42L60.35-32.42L60.35-32.42Q63.42-33.92 68.22-33.92L68.22-33.92L68.22-33.92Q70.98-33.92 72.77-32.58L72.77-32.58L72.77-32.58Q74.56-31.23 75.14-29.06L75.14-29.06L75.14-29.06Q76.22-31.30 79.01-32.61L79.01-32.61L79.01-32.61Q81.79-33.92 85.22-33.92L85.22-33.92L85.22-33.92Q88.64-33.92 90.34-33.18L90.34-33.18L90.34-33.18Q92.03-32.45 93.06-31.23L93.06-31.23L93.06-31.23Q94.78-28.99 94.78-24.90L94.78-24.90L94.78-24.90Q94.78-20.86 93.06-12.48L93.06-12.48L93.06-12.48Q92.16-8.38 92.16-6.88L92.16-6.88L92.16-6.88Q92.16-5.38 93.02-4.48L93.02-4.48L93.02-4.48Q93.89-3.58 95.17-3.46L95.17-3.46L95.17-3.46Q94.53-1.28 92.32 0L92.32 0L92.32 0Q90.11 1.28 87.23 1.28ZM102.88-1.92L102.88-1.92L102.88-1.92Q101.38-3.58 100.70-6.21L100.70-6.21L100.70-6.21Q100.03-8.83 100.03-13.12L100.03-13.12L100.03-13.12Q100.03-17.41 101.50-21.31L101.50-21.31L101.50-21.31Q102.98-25.22 105.66-28.03L105.66-28.03L105.66-28.03Q111.17-33.92 120.26-33.92L120.26-33.92L120.26-33.92Q123.52-33.92 125.89-32.83L125.89-32.83L136.83-33.92L132.10-8.96L132.10-8.96Q131.90-8.19 131.90-6.78L131.90-6.78L131.90-6.78Q131.90-5.38 132.77-4.48L132.77-4.48L132.77-4.48Q133.63-3.58 134.91-3.46L134.91-3.46L134.91-3.46Q134.27-1.28 131.94 0L131.94 0L131.94 0Q129.60 1.28 126.98 1.28L126.98 1.28L126.98 1.28Q124.35 1.28 122.59 0.29L122.59 0.29L122.59 0.29Q120.83-0.70 120.32-2.37L120.32-2.37L120.32-2.37Q119.30-0.77 117.12 0.26L117.12 0.26L117.12 0.26Q114.94 1.28 112.03 1.28L112.03 1.28L112.03 1.28Q109.12 1.28 106.75 0.51L106.75 0.51L106.75 0.51Q104.38-0.26 102.88-1.92ZM116.38-27.90L116.38-27.90L116.38-27.90Q115.65-26.75 115.01-24.80L115.01-24.80L115.01-24.80Q114.37-22.85 113.31-17.63L113.31-17.63L113.31-17.63Q112.26-12.42 112.26-8.70L112.26-8.70L112.26-8.70Q112.26-4.99 112.83-3.90L112.83-3.90L112.83-3.90Q113.41-2.82 114.43-2.82L114.43-2.82L114.43-2.82Q116.48-2.82 117.98-4.77L117.98-4.77L117.98-4.77Q119.49-6.72 120.06-10.18L120.06-10.18L123.46-28.93L123.46-28.93Q122.11-30.08 120.54-30.08L120.54-30.08L120.54-30.08Q118.98-30.08 118.05-29.57L118.05-29.57L118.05-29.57Q117.12-29.06 116.38-27.90ZM156.80-30.34L156.80-30.34L156.80-30.34Q160.26-33.92 167.55-33.92L167.55-33.92L167.55-33.92Q171.58-33.92 173.79-31.78L173.79-31.78L173.79-31.78Q176.00-29.63 176.00-25.70L176.00-25.70L176.00-25.70Q176.00-21.76 173.79-18.98L173.79-18.98L173.79-18.98Q171.58-16.19 167.49-15.04L167.49-15.04L167.49-15.04Q167.81-13.76 168.26-12.42L168.26-12.42L169.15-9.86L169.15-9.86Q170.37-6.59 171.33-5.44L171.33-5.44L171.33-5.44Q172.29-4.29 173.57-3.90L173.57-3.90L173.57-3.90Q172.86-1.28 170.30 0.13L170.30 0.13L170.30 0.13Q168.26 1.28 165.44 1.28L165.44 1.28L165.44 1.28Q157.18 1.28 156.10-11.46L156.10-11.46L156.10-11.46Q155.90-13.25 155.90-15.04L155.90-15.04L155.90-15.04Q159.10-15.94 161.34-18.94L161.34-18.94L161.34-18.94Q163.58-21.95 163.58-25.47L163.58-25.47L163.58-25.47Q163.58-28.99 161.09-28.99L161.09-28.99L161.09-28.99Q159.30-28.99 157.89-27.01L157.89-27.01L157.89-27.01Q156.48-25.02 155.84-21.63L155.84-21.63L151.62 0L138.69 1.28L147.65-44.80L160.51-46.08L159.04-38.46L159.04-38.46Q158.08-33.09 156.80-30.34ZM204.86-10.82L204.86-10.82L204.86-10.82Q206.46-9.73 206.46-7.33L206.46-7.33L206.46-7.33Q206.46-4.93 205.25-3.39L205.25-3.39L205.25-3.39Q204.03-1.86 202.05-0.83L202.05-0.83L202.05-0.83Q197.95 1.28 193.54 1.28L193.54 1.28L193.54 1.28Q189.12 1.28 186.53 0.32L186.53 0.32L186.53 0.32Q183.94-0.64 182.21-2.43L182.21-2.43L182.21-2.43Q178.82-5.82 178.82-12.03L178.82-12.03L178.82-12.03Q178.82-21.70 184.06-27.58L184.06-27.58L184.06-27.58Q189.70-33.92 199.49-33.92L199.49-33.92L199.49-33.92Q205.57-33.92 208.58-31.36L208.58-31.36L208.58-31.36Q210.82-29.44 210.82-26.30L210.82-26.30L210.82-26.30Q210.82-15.04 191.36-15.04L191.36-15.04L191.36-15.04Q191.10-13.38 191.10-11.97L191.10-11.97L191.10-11.97Q191.10-9.02 192.42-7.90L192.42-7.90L192.42-7.90Q193.73-6.78 196.16-6.78L196.16-6.78L196.16-6.78Q198.59-6.78 201.18-7.90L201.18-7.90L201.18-7.90Q203.78-9.02 204.86-10.82ZM191.81-17.79L191.81-17.79L191.81-17.79Q196.35-17.79 198.98-20.61L198.98-20.61L198.98-20.61Q201.60-23.30 201.60-27.58L201.60-27.58L201.60-27.58Q201.60-29.06 201.06-29.86L201.06-29.86L201.06-29.86Q200.51-30.66 199.42-30.66L199.42-30.66L199.42-30.66Q198.34-30.66 197.41-30.24L197.41-30.24L197.41-30.24Q196.48-29.82 195.52-28.42L195.52-28.42L195.52-28.42Q193.15-25.22 191.81-17.79ZM232.13-22.46L232.13-22.46L232.13-22.46Q233.02-24.83 233.02-26.88L233.02-26.88L233.02-26.88Q233.02-30.66 229.95-30.66L229.95-30.66L229.95-30.66Q228.35-30.66 227.04-29.22L227.04-29.22L227.04-29.22Q225.73-27.78 225.73-25.98L225.73-25.98L225.73-25.98Q225.73-24.70 226.75-23.68L226.75-23.68L226.75-23.68Q228.22-22.27 232.00-19.97L232.00-19.97L232.00-19.97Q235.78-17.66 237.22-15.78L237.22-15.78L237.22-15.78Q238.66-13.89 238.66-11.30L238.66-11.30L238.66-11.30Q238.66-8.70 237.41-6.34L237.41-6.34L237.41-6.34Q236.16-3.97 233.92-2.30L233.92-2.30L233.92-2.30Q229.12 1.28 221.44 1.28L221.44 1.28L221.44 1.28Q217.28 1.28 214.08-0.90L214.08-0.90L214.08-0.90Q210.88-3.01 210.88-5.50L210.88-5.50L210.88-5.50Q210.88-8 212.70-9.47L212.70-9.47L212.70-9.47Q214.53-10.94 217.22-10.94L217.22-10.94L217.22-10.94Q219.90-10.94 221.57-9.92L221.57-9.92L221.57-9.92Q220.74-7.81 220.74-6.40L220.74-6.40L220.74-6.40Q220.74-2.18 224.32-2.18L224.32-2.18L224.32-2.18Q225.86-2.18 226.88-3.14L226.88-3.14L226.88-3.14Q227.90-4.10 227.90-5.76L227.90-5.76L227.90-5.76Q227.90-9.02 222.40-12.48L222.40-12.48L222.40-12.48Q217.92-15.42 216.90-16.58L216.90-16.58L216.90-16.58Q215.17-18.62 215.17-21.18L215.17-21.18L215.17-21.18Q215.17-23.74 216.38-26.18L216.38-26.18L216.38-26.18Q217.60-28.61 219.84-30.34L219.84-30.34L219.84-30.34Q224.51-33.92 232.64-33.92L232.64-33.92L232.64-33.92Q236.80-33.92 239.26-32.26L239.26-32.26L239.26-32.26Q241.73-30.59 241.73-27.78L241.73-27.78L241.73-27.78Q241.73-24.96 240.03-23.36L240.03-23.36L240.03-23.36Q238.34-21.76 235.26-21.76L235.26-21.76L235.26-21.76Q233.15-21.76 232.13-22.46ZM245.12-6.40L245.12-6.40L245.12-6.40Q245.12-8.13 246.02-12.48L246.02-12.48L249.41-29.76L245.63-29.76L245.89-31.68L245.89-31.68Q253.57-33.98 260.99-39.62L260.99-39.62L264.06-39.62L262.53-32.64L267.52-32.64L266.94-29.76L262.02-29.76L258.75-12.48L258.75-12.48Q257.92-8.51 257.92-7.17L257.92-7.17L257.92-7.17Q257.92-4.10 260.61-3.46L260.61-3.46L260.61-3.46Q259.97-1.28 257.66 0L257.66 0L257.66 0Q255.36 1.28 252.10 1.28L252.10 1.28L252.10 1.28Q248.83 1.28 246.98-0.77L246.98-0.77L246.98-0.77Q245.12-2.82 245.12-6.40ZM299.39-7.10L299.39-7.10L299.39-7.10Q299.39-4.29 302.27-3.46L302.27-3.46L302.27-3.46Q301.57-1.09 298.82 0.19L298.82 0.19L298.82 0.19Q296.51 1.28 293.98 1.28L293.98 1.28L293.98 1.28Q291.46 1.28 290.14 0.61L290.14 0.61L290.14 0.61Q288.83-0.06 288.13-1.15L288.13-1.15L288.13-1.15Q286.98-2.82 286.98-5.95L286.98-5.95L286.98-5.95Q286.98-7.81 288-12.93L288-12.93L288.90-17.79L288.90-17.79Q289.98-23.36 289.98-25.41L289.98-25.41L289.98-25.41Q289.98-28.99 288-28.99L288-28.99L288-28.99Q285.50-28.99 283.90-25.34L283.90-25.34L283.90-25.34Q283.26-23.94 282.82-21.82L282.82-21.82L278.46 0L265.60 1.28L274.62-44.80L287.49-46.08L286.98-43.52L286.98-43.52Q285.18-33.66 283.65-30.34L283.65-30.34L283.65-30.34Q287.23-33.92 293.82-33.92L293.82-33.92L293.82-33.92Q300.80-33.92 302.08-29.31L302.08-29.31L302.08-29.31Q302.53-27.84 302.53-26.56L302.53-26.56L302.53-26.56Q302.53-25.28 302.43-24.29L302.43-24.29L302.43-24.29Q302.34-23.30 302.02-21.50L302.02-21.50L301.18-16.90L299.71-9.66L299.71-9.66Q299.39-8.19 299.39-7.10ZM322.82-3.52L322.82-3.52L322.82-3.52Q320.83 1.28 314.50 1.28L314.50 1.28L314.50 1.28Q311.23 1.28 309.18-0.96L309.18-0.96L309.18-0.96Q307.46-2.94 307.46-4.93L307.46-4.93L307.46-4.93Q307.46-10.11 309.82-20.22L309.82-20.22L312.19-32.64L325.18-33.92L321.28-13.70L321.28-13.70Q320.19-8.96 320.19-7.30L320.19-7.30L320.19-7.30Q320.19-3.65 322.82-3.52ZM313.34-41.54L313.34-41.54L313.34-41.54Q313.34-44.03 315.42-45.38L315.42-45.38L315.42-45.38Q317.50-46.72 320.51-46.72L320.51-46.72L320.51-46.72Q323.52-46.72 325.34-45.38L325.34-45.38L325.34-45.38Q327.17-44.03 327.17-41.54L327.17-41.54L327.17-41.54Q327.17-39.04 325.15-37.76L325.15-37.76L325.15-37.76Q323.14-36.48 320.13-36.48L320.13-36.48L320.13-36.48Q317.12-36.48 315.23-37.76L315.23-37.76L315.23-37.76Q313.34-39.04 313.34-41.54ZM355.33 1.28L355.33 1.28L355.33 1.28Q347.58 1.28 347.58-4.74L347.58-4.74L347.58-4.74Q347.65-6.40 348.16-9.22L348.16-9.22L349.31-15.10L349.31-15.10Q351.04-23.42 351.04-25.28L351.04-25.28L351.04-25.28Q351.04-28.99 348.86-28.99L348.86-28.99L348.86-28.99Q345.22-28.99 343.30-19.46L343.30-19.46L339.52 0L326.66 1.28L333.31-32.70L343.81-33.92L342.78-27.65L342.78-27.65Q345.79-33.92 355.01-33.92L355.01-33.92L355.01-33.92Q359.49-33.92 361.38-32.03L361.38-32.03L361.38-32.03Q363.26-30.14 363.26-25.92L363.26-25.92L363.26-25.92Q363.26-21.95 361.22-12.67L361.22-12.67L361.22-12.67Q360.26-8.51 360.26-6.94L360.26-6.94L360.26-6.94Q360.26-5.38 361.12-4.48L361.12-4.48L361.12-4.48Q361.98-3.58 363.26-3.46L363.26-3.46L363.26-3.46Q362.62-1.28 360.42 0L360.42 0L360.42 0Q358.21 1.28 355.33 1.28ZM372.93-26.75L372.93-26.75L372.93-26.75Q375.10-29.82 378.40-31.87L378.40-31.87L378.40-31.87Q381.70-33.92 385.73-33.92L385.73-33.92L385.73-33.92Q389.76-33.92 391.68-32.64L391.68-32.64L404.22-33.92L399.87-9.34L399.87-9.34Q397.63 3.20 392.90 8.13L392.90 8.13L392.90 8.13Q388.35 12.80 379.52 12.80L379.52 12.80L379.52 12.80Q372.80 12.80 368.96 10.69L368.96 10.69L368.96 10.69Q365.12 8.58 365.12 5.06L365.12 5.06L365.12 5.06Q365.12 2.43 367.10 0.93L367.10 0.93L367.10 0.93Q369.09-0.58 372.16-0.58L372.16-0.58L372.16-0.58Q374.85-0.58 376.90 0.64L376.90 0.64L376.90 0.64Q378.11 1.28 378.69 2.18L378.69 2.18L378.69 2.18Q377.22 3.46 377.22 5.57L377.22 5.57L377.22 5.57Q377.22 8.32 379.78 8.32L379.78 8.32L379.78 8.32Q384.06 8.32 386.50-1.79L386.50-1.79L386.50-1.79Q387.20-4.54 387.78-7.30L387.78-7.30L387.78-7.30Q384.90-3.78 378.37-3.78L378.37-3.78L378.37-3.78Q373.82-3.78 371.20-5.95L371.20-5.95L371.20-5.95Q368.58-8.13 368.58-13.25L368.58-13.25L368.58-13.25Q368.58-16.45 369.66-20.06L369.66-20.06L369.66-20.06Q370.75-23.68 372.93-26.75ZM381.25-13.06L381.25-13.06L381.25-13.06Q381.25-8.70 383.49-8.70L383.49-8.70L383.49-8.70Q385.02-8.70 386.50-10.37L386.50-10.37L386.50-10.37Q387.65-11.71 388.10-13.70L388.10-13.70L391.36-30.14L391.36-30.14Q391.04-30.21 390.72-30.34L390.72-30.34L390.72-30.34Q390.08-30.59 389.25-30.59L389.25-30.59L389.25-30.59Q385.34-30.59 383.04-24.19L383.04-24.19L383.04-24.19Q381.25-19.20 381.25-13.06ZM425.86-22.46L425.86-22.46L425.86-22.46Q426.75-24.83 426.75-26.88L426.75-26.88L426.75-26.88Q426.75-30.66 423.68-30.66L423.68-30.66L423.68-30.66Q422.08-30.66 420.77-29.22L420.77-29.22L420.77-29.22Q419.46-27.78 419.46-25.98L419.46-25.98L419.46-25.98Q419.46-24.70 420.48-23.68L420.48-23.68L420.48-23.68Q421.95-22.27 425.73-19.97L425.73-19.97L425.73-19.97Q429.50-17.66 430.94-15.78L430.94-15.78L430.94-15.78Q432.38-13.89 432.38-11.30L432.38-11.30L432.38-11.30Q432.38-8.70 431.14-6.34L431.14-6.34L431.14-6.34Q429.89-3.97 427.65-2.30L427.65-2.30L427.65-2.30Q422.85 1.28 415.17 1.28L415.17 1.28L415.17 1.28Q411.01 1.28 407.81-0.90L407.81-0.90L407.81-0.90Q404.61-3.01 404.61-5.50L404.61-5.50L404.61-5.50Q404.61-8 406.43-9.47L406.43-9.47L406.43-9.47Q408.26-10.94 410.94-10.94L410.94-10.94L410.94-10.94Q413.63-10.94 415.30-9.92L415.30-9.92L415.30-9.92Q414.46-7.81 414.46-6.40L414.46-6.40L414.46-6.40Q414.46-2.18 418.05-2.18L418.05-2.18L418.05-2.18Q419.58-2.18 420.61-3.14L420.61-3.14L420.61-3.14Q421.63-4.10 421.63-5.76L421.63-5.76L421.63-5.76Q421.63-9.02 416.13-12.48L416.13-12.48L416.13-12.48Q411.65-15.42 410.62-16.58L410.62-16.58L410.62-16.58Q408.90-18.62 408.90-21.18L408.90-21.18L408.90-21.18Q408.90-23.74 410.11-26.18L410.11-26.18L410.11-26.18Q411.33-28.61 413.57-30.34L413.57-30.34L413.57-30.34Q418.24-33.92 426.37-33.92L426.37-33.92L426.37-33.92Q430.53-33.92 432.99-32.26L432.99-32.26L432.99-32.26Q435.46-30.59 435.46-27.78L435.46-27.78L435.46-27.78Q435.46-24.96 433.76-23.36L433.76-23.36L433.76-23.36Q432.06-21.76 428.99-21.76L428.99-21.76L428.99-21.76Q426.88-21.76 425.86-22.46Z" fill="url(#editing-gradient-gradient)"></path></g></g><style>text {
  font-size: 64px;
  font-family: Arial Black;
  dominant-baseline: central;
  text-anchor: middle;
}</style></svg>
